germany/municipalities/07333067.svg

<?xml version="1.0" encoding="UTF-8" standalone="no"?>
<!-- Created with Inkscape (http://www.inkscape.org/) -->

<svg
   xmlns:dc="http://purl.org/dc/elements/1.1/"
   xmlns:cc="http://creativecommons.org/ns#"
   xmlns:rdf="http://www.w3.org/1999/02/22-rdf-syntax-ns#"
   xmlns:svg="http://www.w3.org/2000/svg"
   xmlns="http://www.w3.org/2000/svg"
   xmlns:sodipodi="http://sodipodi.sourceforge.net/DTD/sodipodi-0.dtd"
   xmlns:inkscape="http://www.inkscape.org/namespaces/inkscape"
   width="169.90762mm"
   height="209.28394mm"
   viewBox="0 0 169.90762 209.28394"
   version="1.1"
   id="svg145"
   inkscape:version="0.92.4 (5da689c313, 2019-01-14)"
   sodipodi:docname="DEU Schiersfeld COA.svg">
  <defs
     id="defs139">
    <inkscape:path-effect
       effect="spiro"
       id="path-effect1404"
       is_visible="true" />
    <inkscape:path-effect
       effect="spiro"
       id="path-effect1376"
       is_visible="true" />
    <inkscape:path-effect
       effect="spiro"
       id="path-effect1376-2"
       is_visible="true" />
  </defs>
  <sodipodi:namedview
     id="base"
     pagecolor="#ffffff"
     bordercolor="#666666"
     borderopacity="1.0"
     inkscape:pageopacity="0.0"
     inkscape:pageshadow="2"
     inkscape:zoom="0.69279883"
     inkscape:cx="321.08527"
     inkscape:cy="395.4972"
     inkscape:document-units="mm"
     inkscape:current-layer="layer1"
     showgrid="false"
     inkscape:window-width="1366"
     inkscape:window-height="745"
     inkscape:window-x="-8"
     inkscape:window-y="-8"
     inkscape:window-maximized="1"
     fit-margin-top="0"
     fit-margin-left="0"
     fit-margin-right="0"
     fit-margin-bottom="0"
     inkscape:snap-nodes="false"
     inkscape:snap-midpoints="true"
     inkscape:snap-smooth-nodes="true" />
  <metadata
     id="metadata142">
    <rdf:RDF>
      <cc:Work
         rdf:about="">
        <dc:format>image/svg+xml</dc:format>
        <dc:type
           rdf:resource="http://purl.org/dc/dcmitype/StillImage" />
        <dc:title></dc:title>
      </cc:Work>
    </rdf:RDF>
  </metadata>
  <g
     inkscape:label="Ebene 1"
     inkscape:groupmode="layer"
     id="layer1"
     transform="translate(-6.7732974,-12.477444)">
    <path
       style="fill:#0099ff;fill-opacity:1;fill-rule:evenodd;stroke:none;stroke-width:2.91816235;stroke-opacity:1"
       inkscape:connector-curvature="0"
       d="M 175.2113,13.936528 174.36446,131.58939 C 172.51653,181.07915 136.00517,220.2746 91.727108,220.3023 47.488862,220.2417 10.963848,181.03205 9.0897488,131.58939 L 8.2429188,13.936528 H 91.725119 Z"
       id="path10563-0-6-7-9-2"
       sodipodi:nodetypes="ccccccc" />
    <path
       style="fill:#ffd700;fill-opacity:1;stroke:#000000;stroke-width:11;stroke-miterlimit:4;stroke-dasharray:none;stroke-opacity:1"
       d="M 8.3515625 393.98438 L 8.7558594 450.1875 C 15.839071 637.0574 153.88627 785.25143 321.08594 785.48047 C 488.43609 785.37578 626.43171 637.23541 633.41602 450.1875 L 633.82031 393.98438 L 8.3515625 393.98438 z "
       transform="matrix(0.26458333,0,0,0.26458333,6.7732974,12.477444)"
       id="rect1188" />
    <path
       style="fill:none;fill-rule:evenodd;stroke:#000000;stroke-width:2.91816235;stroke-opacity:1"
       inkscape:connector-curvature="0"
       d="M 175.2113,13.936525 174.36446,131.58939 C 172.51653,181.07915 136.00517,220.2746 91.727107,220.3023 47.488861,220.2417 10.963848,181.03205 9.0897484,131.58939 L 8.2429184,13.936525 H 91.725118 Z"
       id="path10563-0-6-7-9"
       sodipodi:nodetypes="ccccccc" />
    <rect
       style="fill:#ff0000;fill-opacity:1;stroke:#000000;stroke-width:1.32291663;stroke-linecap:round;stroke-linejoin:round;stroke-miterlimit:4;stroke-dasharray:none;stroke-opacity:1"
       id="rect1206"
       width="90.23774"
       height="5.3185306"
       x="46.608349"
       y="189.8394" />
    <rect
       style="fill:#ff0000;fill-opacity:1;stroke:#000000;stroke-width:1.32291663;stroke-linecap:round;stroke-linejoin:round;stroke-miterlimit:4;stroke-dasharray:none;stroke-opacity:1"
       id="rect1208"
       width="83.116371"
       height="31.911171"
       x="50.169033"
       y="157.92822" />
    <rect
       style="fill:none;fill-opacity:1;stroke:#000000;stroke-width:1.32291663;stroke-linecap:round;stroke-linejoin:round;stroke-miterlimit:4;stroke-dasharray:none;stroke-opacity:1"
       id="rect1210"
       width="74.928032"
       height="29.188662"
       x="54.26321"
       y="160.70775" />
    <path
       inkscape:connector-curvature="0"
       style="fill:#ff0000;fill-opacity:1;stroke:#000000;stroke-width:1.32291663;stroke-linecap:round;stroke-linejoin:round;stroke-miterlimit:4;stroke-dasharray:none;stroke-opacity:1"
       d="m 91.727287,123.49497 c -1.461582,-1.1e-4 -2.646455,1.18477 -2.646349,2.64635 0.0013,0.94561 0.506894,1.81873 1.326533,2.2903 l -48.577396,17.75137 -3.964617,-6.26422 v 7.35563 14.93293 h 4.655013 v -10.1601 H 91.727287 140.9341 v 10.1601 h 4.65502 v -14.93293 -7.35563 l -3.96462,6.26422 -48.578432,-17.75189 c 0.819679,-0.47135 1.325571,-1.34424 1.327052,-2.28978 1.06e-4,-1.46138 -1.184452,-2.64617 -2.645833,-2.64635 z"
       id="path1214" />
    <path
       style="fill:none;stroke:#000000;stroke-width:1.58749998;stroke-linecap:round;stroke-linejoin:round;stroke-miterlimit:4;stroke-dasharray:none;stroke-opacity:1"
       d="M 91.727025,130.47309 43.99299,148.93141 h 47.734035 47.734555 z"
       id="path1256"
       inkscape:connector-curvature="0" />
    <path
       style="fill:#ffffff;stroke:#000000;stroke-width:5;stroke-linecap:round;stroke-linejoin:round;stroke-miterlimit:4;stroke-dasharray:none;stroke-opacity:1"
       d="M 574.7832 36.613281 L 305.83594 220.30273 C 298.09784 215.17607 288.77622 212.4774 279.49609 212.67773 C 270.60146 212.86975 261.88098 215.66847 254.08398 219.95312 C 246.28699 224.23778 239.36409 229.97567 233.05273 236.24609 C 207.72006 261.41447 191.96206 295.10303 165.81641 319.42578 C 159.43709 325.36032 152.43515 330.71464 144.60742 334.54102 C 136.77969 338.36739 128.07654 340.62533 119.37305 340.2207 C 109.85008 339.77798 100.44786 336.03676 93.490234 329.51953 C 86.532607 323.0023 82.151235 313.70677 81.943359 304.17578 C 81.737424 294.73378 85.691959 285.25814 92.607422 278.82617 C 99.522884 272.3942 109.29895 269.13438 118.68164 270.21094 C 124.16989 270.84065 129.45222 272.88186 134.12891 275.82227 C 138.80559 278.76267 142.89101 282.58581 146.4082 286.8457 C 149.22499 290.25728 151.70185 293.96972 154.87109 297.05664 C 156.45571 298.6001 158.21319 299.98173 160.17188 301.00977 C 162.13056 302.0378 164.29928 302.70513 166.50977 302.78906 C 168.91467 302.88038 171.34165 302.26904 173.41602 301.04883 C 175.49038 299.82861 177.20434 298.00376 178.29297 295.85742 C 175.25166 294.77412 172.4146 293.11999 169.97461 291.00586 C 165.98429 287.54845 163.14274 282.97057 160.61719 278.33398 C 158.09164 273.6974 155.80204 268.89713 152.64648 264.66406 C 148.13406 258.6108 141.92898 253.88644 135.02344 250.83398 C 128.1179 247.78153 120.5285 246.37738 112.97852 246.41797 C 97.00743 246.50384 81.162881 253.2519 70.083984 264.75586 C 59.005088 276.25982 52.855429 292.37664 53.523438 308.33398 C 54.224967 325.09208 62.393203 341.28862 75.068359 352.27344 C 87.743516 363.25826 104.68462 369.01881 121.45312 368.64062 C 142.10148 368.17494 161.80525 358.75645 177.73242 345.60742 C 193.65959 332.4584 206.21511 315.7276 217.80273 298.63086 C 225.82518 286.7943 233.56926 274.56997 243.9668 264.75391 C 249.16557 259.84588 255.01582 255.57437 261.5 252.5625 C 267.98418 249.55063 275.12097 247.8245 282.26758 248.0293 C 293.66067 248.35578 304.80934 253.80353 312.07422 262.58594 C 312.3621 262.93395 312.63481 263.29263 312.91016 263.65039 C 313.02621 258.08371 314.37117 252.56787 317.36328 247.91016 C 320.87295 242.44679 326.45622 238.482 332.58008 236.32227 C 338.70394 234.16253 345.34411 233.72546 351.80469 234.37891 C 356.66367 234.87036 361.49774 236.00301 365.92969 238.02539 C 369.66062 235.28758 373.44293 232.61895 377.23242 230.00586 C 431.51508 192.57458 489.3978 159.96478 539.43359 117.02148 C 552.90545 105.45925 566.15191 92.622505 572.70508 76.123047 C 577.66028 63.646906 578.40138 49.540652 574.7832 36.613281 z "
       transform="matrix(0.26458333,0,0,0.26458333,6.7732974,12.477444)"
       id="path1374-8" />
    <path
       style="fill:#ffffff;stroke:#000000;stroke-width:1.32291663;stroke-linecap:round;stroke-linejoin:round;stroke-miterlimit:4;stroke-dasharray:none;stroke-opacity:1"
       d="m -62.368597,93.931396 c 0.80468,-0.286624 1.555219,-0.724439 2.200801,-1.283803 1.055772,-0.914773 1.807534,-2.125993 2.475753,-3.352756 0.668219,-1.226764 1.274348,-2.496455 2.109254,-3.616454 1.193912,-1.601592 2.835312,-2.851948 4.662403,-3.659577 1.82709,-0.807629 3.835109,-1.17907 5.83271,-1.16833 4.225683,0.02272 8.417934,1.808101 11.349226,4.851856 2.931291,3.043755 4.55864,7.308221 4.381896,11.530267 -0.185613,4.433911 -2.34669,8.719331 -5.700325,11.625731 -3.353635,2.9064 -7.836229,4.43015 -12.272897,4.33009 -5.463211,-0.12321 -10.676572,-2.61518 -14.890635,-6.09419 -4.214063,-3.47901 -7.536109,-7.905722 -10.602001,-12.429234 -2.122605,-3.131757 -4.171217,-6.365758 -6.922232,-8.962924 -1.375508,-1.298582 -2.923601,-2.428782 -4.639207,-3.225673 -1.715606,-0.796891 -3.603911,-1.253808 -5.494785,-1.199622 -3.014423,0.08638 -5.964045,1.527728 -7.88621,3.851408 -1.797408,2.172862 -2.676764,5.081497 -2.384204,7.88621 -0.67451,-1.942432 -1.60176,-3.796937 -2.751,-5.502008 -3.06635,-4.549418 -7.58781,-7.889533 -12.10442,-11.004015 -14.36229,-9.903693 -29.67702,-18.532161 -42.91566,-29.894241 -3.56443,-3.059175 -7.06935,-6.455134 -8.80321,-10.820616 -1.31106,-3.300979 -1.50751,-7.033447 -0.5502,-10.453814 l 71.159294,48.601067 c 2.047371,-1.35643 4.513844,-2.070409 6.96921,-2.017403 2.353371,0.0508 4.66058,0.791483 6.723534,1.925131 2.062954,1.133648 3.894405,2.651431 5.564284,4.310479 6.702605,6.659132 10.872118,15.572631 17.789824,22.008025 1.687861,1.57018 3.540229,2.98691 5.611317,3.9993 2.071087,1.0124 4.3737,1.60977 6.676499,1.50271 2.519618,-0.11714 5.007602,-1.10701 6.848474,-2.83136 1.840873,-1.72435 3.000142,-4.183713 3.055142,-6.705453 0.05449,-2.498197 -0.991758,-5.005044 -2.821474,-6.706836 -1.829717,-1.701793 -4.416237,-2.564616 -6.898741,-2.279776 -1.452098,0.166612 -2.849722,0.706701 -4.087095,1.484685 -1.237372,0.777983 -2.318322,1.789826 -3.248914,2.916923 -0.745274,0.902647 -1.401032,1.884633 -2.239561,2.701379 -0.419264,0.408374 -0.884313,0.774105 -1.402548,1.046105 -0.518234,0.272 -1.091643,0.448513 -1.6765,0.470721 -0.636298,0.02416 -1.278558,-0.137706 -1.827399,-0.460554 -0.548842,-0.322848 -1.002369,-0.805562 -1.290403,-1.373448 z"
       id="path1374"
       inkscape:connector-curvature="0"
       inkscape:path-effect="#path-effect1376"
       inkscape:original-d="m -62.368597,93.931396 c 0,0 1.584317,-0.699642 2.200801,-1.283803 2.018477,-1.912646 2.476245,-5.156591 4.585007,-6.96921 2.920227,-2.510125 6.711658,-5.544789 10.495113,-4.827907 7.438371,1.409409 16.032579,8.817408 15.731122,16.382123 -0.319,8.004921 -9.971491,15.564861 -17.973222,15.955821 -10.491409,0.5126 -17.111164,-12.19228 -25.492636,-18.523424 -5.767265,-4.356439 -9.868765,-12.626419 -17.056224,-13.388219 -2.90918,-0.308344 -5.990311,1.623411 -7.88621,3.851408 -1.779746,2.091498 -2.384204,7.88621 -2.384204,7.88621 0,0 -1.51283,-3.867567 -2.751,-5.502008 -3.29269,-4.346508 -7.84092,-7.604527 -12.10442,-11.004015 -13.63109,-10.868712 -30.13744,-18.034535 -42.91566,-29.894241 -3.40808,-3.163105 -7.13146,-6.481778 -8.80321,-10.820616 -1.25457,-3.256096 -0.5502,-10.453814 -0.5502,-10.453814 l 71.159294,48.601067 c 0,0 4.561424,-2.244195 6.96921,-2.017403 4.57291,0.430728 8.717168,3.346407 12.287818,6.23561 7.333069,5.933576 10.314722,16.254411 17.789824,22.008025 3.556319,2.73731 7.866837,6.27352 12.287816,5.50201 4.514738,-0.78787 9.950201,-4.95408 9.903616,-9.536813 -0.04485,-4.412403 -5.330921,-8.533391 -9.720215,-8.986612 -2.836646,-0.292901 -4.99122,2.77855 -7.336009,4.401608 -1.860521,1.287849 -3.061293,4.061299 -5.318609,4.218205 -1.202836,0.08361 -3.117802,-1.834002 -3.117802,-1.834002 z"
       sodipodi:nodetypes="caaaaaaaacaaaaccaaaaaaaac"
       transform="translate(191.87616,-3.1750001)" />
    <circle
       style="fill:#ffffff;fill-opacity:1;stroke:#000000;stroke-width:1.28290081;stroke-linecap:round;stroke-linejoin:round;stroke-miterlimit:4;stroke-dasharray:none;stroke-opacity:1"
       id="path1407"
       cx="92.287231"
       cy="76.117577"
       r="2.3585496" />
    <path
       style="fill:none;stroke:#000000;stroke-width:0.79374999;stroke-linecap:round;stroke-linejoin:miter;stroke-miterlimit:4;stroke-dasharray:none;stroke-opacity:1"
       d="M 25.502307,24.956789 91.224432,69.950407"
       id="path1409"
       inkscape:connector-curvature="0"
       inkscape:transform-center-x="34.127079"
       inkscape:transform-center-y="-21.867532" />
    <path
       style="fill:none;stroke:#000000;stroke-width:0.79374999;stroke-linecap:round;stroke-linejoin:miter;stroke-miterlimit:4;stroke-dasharray:none;stroke-opacity:1"
       d="M 95.076955,68.207077 111.30996,57.905364"
       id="path1411"
       inkscape:connector-curvature="0" />
    <path
       style="fill:none;stroke:#000000;stroke-width:0.79374999;stroke-linecap:round;stroke-linejoin:miter;stroke-miterlimit:4;stroke-dasharray:none;stroke-opacity:1"
       d="M 98.406801,68.883457 114.6398,58.581743"
       id="path1411-9"
       inkscape:connector-curvature="0" />
    <path
       style="fill:none;stroke:#000000;stroke-width:0.79374999;stroke-linecap:round;stroke-linejoin:miter;stroke-miterlimit:4;stroke-dasharray:none;stroke-opacity:1"
       d="M 103.19345,68.432544 119.42646,58.13083"
       id="path1411-2"
       inkscape:connector-curvature="0" />
    <path
       style="fill:none;stroke:#000000;stroke-width:0.79374999;stroke-linecap:round;stroke-linejoin:miter;stroke-miterlimit:4;stroke-dasharray:none;stroke-opacity:1"
       d="m 107.04359,68.658002 16.233,-10.301714"
       id="path1411-8"
       inkscape:connector-curvature="0" />
  </g>
</svg>

<svg xmlns="http://www.w3.org/2000/svg" width="642.171" height="790.994" viewBox="0 0 169.908 209.284"><g transform="translate(-6.773 -12.477)"><path style="fill:#09f;fill-opacity:1;fill-rule:evenodd;stroke:none;stroke-width:2.91816235;stroke-opacity:1" d="m175.211 13.937-.847 117.652c-1.847 49.49-38.359 88.686-82.637 88.713-44.238-.06-80.763-39.27-82.637-88.713L8.243 13.937h83.482z"/><path style="fill:gold;fill-opacity:1;stroke:#000;stroke-width:11;stroke-miterlimit:4;stroke-dasharray:none;stroke-opacity:1" d="m8.352 393.984.404 56.204c7.083 186.87 145.13 335.063 312.33 335.292 167.35-.104 305.346-148.245 312.33-335.293l.404-56.203H8.352z" transform="matrix(.26458 0 0 .26458 6.773 12.477)"/><path style="fill:none;fill-rule:evenodd;stroke:#000;stroke-width:2.91816235;stroke-opacity:1" d="m175.211 13.937-.847 117.652c-1.847 49.49-38.359 88.686-82.637 88.713-44.238-.06-80.763-39.27-82.637-88.713L8.243 13.937h83.482z"/><path style="fill:red;fill-opacity:1;stroke:#000;stroke-width:1.32291663;stroke-linecap:round;stroke-linejoin:round;stroke-miterlimit:4;stroke-dasharray:none;stroke-opacity:1" d="M46.608 189.839h90.238v5.319H46.608zM50.169 157.928h83.116v31.911H50.169z"/><path style="fill:none;fill-opacity:1;stroke:#000;stroke-width:1.32291663;stroke-linecap:round;stroke-linejoin:round;stroke-miterlimit:4;stroke-dasharray:none;stroke-opacity:1" d="M54.263 160.708h74.928v29.189H54.263z"/><path style="fill:red;fill-opacity:1;stroke:#000;stroke-width:1.32291663;stroke-linecap:round;stroke-linejoin:round;stroke-miterlimit:4;stroke-dasharray:none;stroke-opacity:1" d="M91.727 123.495a2.646 2.646 0 0 0-2.646 2.646 2.646 2.646 0 0 0 1.326 2.29L41.83 146.184l-3.965-6.264v22.288h4.655v-10.16h98.414v10.16h4.655V139.92l-3.964 6.264-48.579-17.752a2.646 2.646 0 0 0 1.327-2.29 2.646 2.646 0 0 0-2.646-2.646z"/><path style="fill:none;stroke:#000;stroke-width:1.58749998;stroke-linecap:round;stroke-linejoin:round;stroke-miterlimit:4;stroke-dasharray:none;stroke-opacity:1" d="m91.727 130.473-47.734 18.458h95.469z"/><path style="fill:#fff;stroke:#000;stroke-width:5;stroke-linecap:round;stroke-linejoin:round;stroke-miterlimit:4;stroke-dasharray:none;stroke-opacity:1" d="m574.783 36.613-268.947 183.69c-7.738-5.127-17.06-7.826-26.34-7.625-8.895.192-17.615 2.99-25.412 7.275-7.797 4.285-14.72 10.023-21.031 16.293-25.333 25.168-41.09 58.857-67.237 83.18-6.379 5.934-13.38 11.289-21.209 15.115-7.827 3.826-16.53 6.084-25.234 5.68-9.523-.443-18.925-4.184-25.883-10.701-6.957-6.518-11.339-15.813-11.547-25.344-.206-9.442 3.749-18.918 10.664-25.35 6.916-6.432 16.692-9.692 26.075-8.615 5.488.63 10.77 2.67 15.447 5.611 4.677 2.94 8.762 6.764 12.28 11.024 2.816 3.411 5.293 7.124 8.462 10.21 1.585 1.544 3.342 2.926 5.3 3.954 1.96 1.028 4.128 1.695 6.339 1.78 2.405.09 4.832-.521 6.906-1.741a12.757 12.757 0 0 0 4.877-5.192 26.125 26.125 0 0 1-8.318-4.851c-3.99-3.458-6.832-8.035-9.358-12.672-2.525-4.637-4.815-9.437-7.97-13.67-4.513-6.053-10.718-10.778-17.624-13.83-6.905-3.052-14.495-4.457-22.044-4.416-15.972.086-31.816 6.834-42.895 18.338-11.079 11.504-17.229 27.62-16.56 43.578.701 16.758 8.87 32.955 21.544 43.94 12.676 10.984 29.617 16.745 46.385 16.367 20.648-.466 40.352-9.885 56.28-23.034 15.927-13.149 28.482-29.88 40.07-46.976 8.022-11.837 15.766-24.061 26.164-33.877 5.199-4.908 11.049-9.18 17.533-12.192 6.484-3.011 13.621-4.738 20.768-4.533 11.393.327 22.541 5.775 29.806 14.557.288.348.56.707.836 1.064.116-5.566 1.461-11.082 4.453-15.74 3.51-5.463 9.093-9.428 15.217-11.588 6.124-2.16 12.764-2.597 19.225-1.943 4.859.491 9.693 1.624 14.125 3.646a472.146 472.146 0 0 1 11.302-8.02c54.283-37.43 112.166-70.04 162.202-112.984 13.471-11.562 26.718-24.398 33.271-40.898 4.955-12.476 5.696-26.582 2.078-39.51z" transform="matrix(.26458 0 0 .26458 6.773 12.477)"/><path style="fill:#fff;stroke:#000;stroke-width:1.32291663;stroke-linecap:round;stroke-linejoin:round;stroke-miterlimit:4;stroke-dasharray:none;stroke-opacity:1" d="M-62.369 93.931a6.912 6.912 0 0 0 2.201-1.283c1.056-.915 1.808-2.126 2.476-3.353.668-1.227 1.274-2.497 2.11-3.617 1.193-1.601 2.835-2.852 4.662-3.66 1.827-.807 3.835-1.178 5.832-1.168 4.226.023 8.418 1.809 11.35 4.852 2.93 3.044 4.558 7.309 4.381 11.53-.185 4.435-2.346 8.72-5.7 11.626-3.354 2.907-7.836 4.43-12.273 4.33-5.463-.123-10.676-2.615-14.89-6.094s-7.537-7.905-10.602-12.429c-2.123-3.132-4.172-6.366-6.923-8.963-1.375-1.299-2.923-2.429-4.639-3.226-1.715-.796-3.604-1.253-5.495-1.2-3.014.087-5.964 1.529-7.886 3.852a10.772 10.772 0 0 0-2.384 7.886 23.864 23.864 0 0 0-2.751-5.502c-3.066-4.549-7.588-7.89-12.104-11.004-14.363-9.903-29.677-18.532-42.916-29.894-3.565-3.059-7.07-6.455-8.803-10.82a16.507 16.507 0 0 1-.55-10.454l71.159 48.6a12.234 12.234 0 0 1 6.969-2.017c2.353.051 4.66.792 6.723 1.925 2.063 1.134 3.895 2.652 5.565 4.311 6.702 6.66 10.872 15.573 17.79 22.008 1.687 1.57 3.54 2.987 5.61 4 2.072 1.012 4.375 1.61 6.677 1.502 2.52-.117 5.008-1.107 6.849-2.831 1.84-1.725 3-4.184 3.055-6.706.055-2.498-.992-5.005-2.821-6.707-1.83-1.701-4.417-2.564-6.9-2.28-1.451.167-2.849.707-4.086 1.485-1.238.778-2.319 1.79-3.25 2.917-.744.903-1.4 1.885-2.239 2.702-.419.408-.884.774-1.402 1.046a3.958 3.958 0 0 1-1.677.47 3.375 3.375 0 0 1-1.827-.46 3.375 3.375 0 0 1-1.29-1.374z" transform="translate(191.876 -3.175)"/><circle style="fill:#fff;fill-opacity:1;stroke:#000;stroke-width:1.28290081;stroke-linecap:round;stroke-linejoin:round;stroke-miterlimit:4;stroke-dasharray:none;stroke-opacity:1" cx="92.287" cy="76.118" r="2.359"/><path style="fill:none;stroke:#000;stroke-width:.79374999;stroke-linecap:round;stroke-linejoin:miter;stroke-miterlimit:4;stroke-dasharray:none;stroke-opacity:1" d="M25.502 24.957 91.224 69.95M95.077 68.207l16.233-10.302M98.407 68.883l16.233-10.301M103.193 68.433l16.233-10.302M107.044 68.658l16.233-10.302"/></g></svg>
